X:59
T:La Marianne
C:F. Paris: Carnet de Bal
M:3/4
L:1/4
K:C
cec|B3g3|faf|ed2|cec|B3g3|1 fed|c3:|2 f e/f/ e/f/|g3||
L:1/8\
|:f2 af df|e2 ge ce|d2 fd Bd|c2 ec gc|\
f2 af df|e2 ge ce|d2 fd Bd|c6:|
